public/images/icon_id_sector_empresa_10.svg

<svg width="42" height="42" viewBox="0 0 42 42" fill="none" xmlns="http://www.w3.org/2000/svg">
<path d="M31.4737 28.3106V14.4244C33.0356 13.4006 33.8888 11.6156 33.6919 9.75189C33.4556 7.23189 31.4475 5.22376 28.9406 4.98751C27.3919 4.81689 25.8431 5.31564 24.675 6.33939C23.5856 7.31064 22.9556 8.70189 22.9425 10.1588C22.9031 11.865 23.7563 13.4794 25.1738 14.4113V28.2975C23.7563 29.1769 22.9031 30.7519 22.9425 32.4188C22.9031 34.2825 23.8875 36.015 25.5281 36.9338C25.6856 37.0125 25.8694 37.0388 26.04 36.9731C26.2106 36.9206 26.355 36.8025 26.4337 36.645C26.4862 36.5531 26.5125 36.4613 26.5125 36.3563V32.3925C26.5125 31.8806 27.0637 31.3031 27.5494 31.3031H29.1244C29.61 31.3031 30.1612 31.8806 30.1612 32.3925V36.3694C30.1612 36.5531 30.24 36.7106 30.3712 36.8288C30.4894 36.9469 30.66 37.0125 30.8306 37.0125C30.9356 37.0125 31.0537 36.9863 31.1456 36.9338C32.7731 36.015 33.7575 34.2825 33.7181 32.4188C33.7444 30.7519 32.8912 29.1769 31.4869 28.2975L31.4737 28.3106ZM29.1244 30.0038H27.5494C26.355 30.0038 25.1869 31.1981 25.1869 32.4056V34.9913C24.5831 34.2825 24.255 33.3769 24.2681 32.4319C24.2419 31.1063 24.99 29.8594 26.1713 29.2556C26.3813 29.1375 26.5125 28.9144 26.5125 28.6781V14.0438C26.5125 13.8075 26.3813 13.5844 26.1713 13.4663C24.9638 12.81 24.2419 11.5369 24.2681 10.1588C24.2681 9.06939 24.7406 8.03251 25.5544 7.31064C26.3156 6.62814 27.3 6.26064 28.3237 6.26064C28.4812 6.26064 28.6388 6.26064 28.8094 6.28689C30.6994 6.48376 32.2481 8.01939 32.3925 9.84376C32.55 11.3269 31.8019 12.7444 30.5025 13.4531C30.2925 13.5713 30.1612 13.7944 30.1612 14.0306V28.665C30.1612 28.9013 30.2925 29.1244 30.5025 29.2425C31.6837 29.8463 32.4319 31.0931 32.3925 32.4188C32.4056 33.3506 32.0775 34.2694 31.4737 34.9781V32.3925C31.4737 31.185 30.3056 29.9906 29.1112 29.9906L29.1244 30.0038Z" fill="url(#paint0_linear_133_1158)"/>
<path d="M28.3369 14.1226C27.9694 14.1226 27.6806 14.4244 27.6806 14.7788V28.1794C27.6806 28.5469 27.9825 28.8357 28.35 28.8357C28.7175 28.8357 29.0063 28.5338 29.0063 28.1794V14.7788C29.0063 14.4113 28.7044 14.1226 28.35 14.1226H28.3369Z" fill="url(#paint1_linear_133_1158)"/>
<path d="M31.2375 11.248V9.3974C31.2375 9.22678 31.1719 9.05615 31.0406 8.9249L29.7281 7.6124C29.61 7.49428 29.4394 7.41553 29.2556 7.41553H27.405C27.2344 7.41553 27.0638 7.48115 26.9456 7.6124L25.6331 8.9249C25.515 9.05615 25.4362 9.21365 25.4362 9.38428V11.2349C25.4362 11.4055 25.5019 11.5762 25.6331 11.7074L26.9456 13.0199C27.0638 13.138 27.2344 13.2168 27.4181 13.2168H29.2687C29.4394 13.2168 29.61 13.1512 29.7281 13.0199L31.0406 11.7074C31.1587 11.5762 31.2375 11.4187 31.2375 11.248ZM27.6806 11.8912L26.7619 10.9724V9.67303L27.6806 8.75428H28.9931L29.9119 9.67303V10.9724L28.9931 11.8912H27.6806Z" fill="url(#paint2_linear_133_1158)"/>
<path d="M16.7344 5.18422C16.3012 4.89547 15.9994 4.98735 15.8681 5.0661C15.6187 5.21047 15.4744 5.5386 15.4744 5.9586L15.5269 8.6886C15.5269 9.29235 15.5269 9.86985 15.1725 10.2505C14.7394 10.7361 13.9519 10.723 13.2562 10.6573C12.8362 10.618 12.4687 10.5786 12.2062 10.3555C11.8387 10.0405 11.8125 9.46297 11.8256 8.93797L11.8519 6.0111C11.8519 5.6961 11.7731 5.28922 11.5369 5.07922C11.4187 4.9611 11.2612 4.9086 11.0906 4.93485C10.6575 4.97422 10.185 5.44672 9.75186 5.87985L9.71249 5.91922C8.92499 6.7461 8.41311 7.82235 8.28186 8.9511C8.12436 10.6573 8.81999 12.3373 10.1587 13.4398C10.29 13.5317 10.4081 13.6498 10.4737 13.768C10.5131 13.873 10.5131 13.978 10.5131 14.0961V26.9848C10.5131 27.1292 10.5 27.2736 10.4606 27.3786C10.3819 27.5098 10.2769 27.628 10.1456 27.733C7.92749 29.6623 7.70436 33.0355 9.63374 35.2536C10.605 36.3692 12.0225 37.0386 13.5056 37.078C13.5581 37.078 13.6237 37.078 13.6762 37.078C16.5375 37.078 18.9131 34.7942 19.005 31.9198C19.0575 30.4367 18.48 28.993 17.4037 27.943C17.1806 27.7592 17.01 27.5492 16.8919 27.3261C16.8262 27.1292 16.8 26.9323 16.8131 26.7223V14.0961C16.8131 13.9911 16.8131 13.873 16.8525 13.8073C16.9181 13.6761 17.0231 13.5711 17.1675 13.4792C18.3356 12.5211 19.0312 11.0905 19.0706 9.5811C19.0706 9.46297 19.0706 9.35797 19.0706 9.23985C18.9787 7.61235 18.0994 6.1161 16.7475 5.21047L16.7344 5.18422ZM15.8287 12.718C15.6187 12.8361 15.4875 13.0592 15.4875 13.2955V27.9298C15.4875 28.1661 15.6187 28.3892 15.8287 28.5073C17.0362 29.1636 17.7581 30.4367 17.7319 31.8148C17.7319 32.9042 17.2594 33.9411 16.4456 34.663C15.5662 35.4505 14.3719 35.818 13.2037 35.6867C11.3137 35.4898 9.76499 33.9542 9.62061 32.1298C9.46311 30.6467 10.2112 29.2292 11.5106 28.5205C11.7206 28.4023 11.8519 28.1792 11.8519 27.943V13.3086C11.8519 13.0723 11.7206 12.8492 11.5106 12.7311C10.3294 12.1273 9.58124 10.8805 9.62061 9.55485C9.60749 8.62297 9.93561 7.70422 10.5394 6.99547V9.5811C10.5394 10.7886 11.7075 11.983 12.9019 11.983H14.4769C15.6712 11.983 16.8394 10.7886 16.8394 9.5811V6.99547C17.4431 7.70422 17.7712 8.60985 17.7581 9.55485C17.7844 10.8805 17.0362 12.1273 15.855 12.7311L15.8287 12.718Z" fill="url(#paint3_linear_133_1158)"/>
<path d="M13.6631 27.8513C14.0306 27.8513 14.3194 27.5494 14.3194 27.1951V13.7944C14.3194 13.4269 14.0175 13.1382 13.6631 13.1382C13.2956 13.1382 13.0069 13.4401 13.0069 13.7944V27.1951C13.0069 27.5626 13.3087 27.8513 13.6631 27.8513Z" fill="url(#paint4_linear_133_1158)"/>
<path d="M14.595 28.7568H12.7444C12.5738 28.7568 12.4031 28.8225 12.285 28.9537L10.9725 30.2662C10.8544 30.3843 10.7756 30.555 10.7756 30.7387V32.5893C10.7756 32.76 10.8413 32.9306 10.9725 33.0487L12.285 34.3612C12.4031 34.4793 12.5738 34.5581 12.7575 34.5581H14.6081C14.7788 34.5581 14.9494 34.4925 15.0675 34.3612L16.38 33.0487C16.4981 32.9306 16.5769 32.76 16.5769 32.5893V30.7387C16.5769 30.5681 16.5113 30.3975 16.38 30.2662L15.0675 28.9537C14.9494 28.8356 14.7788 28.7568 14.595 28.7568ZM13.0069 33.2325L12.0881 32.3137V31.0143L13.0069 30.0956H14.3194L15.2381 31.0143V32.3137L14.3194 33.2325H13.0069Z" fill="url(#paint5_linear_133_1158)"/>
<defs>
<linearGradient id="paint0_linear_133_1158" x1="28.224" y1="4.95459" x2="34.7941" y2="6.31519" gradientUnits="userSpaceOnUse">
<stop stop-color="#192644"/>
<stop offset="1" stop-color="#1A4081"/>
</linearGradient>
<linearGradient id="paint1_linear_133_1158" x1="28.3303" y1="14.1226" x2="29.1704" y2="14.1692" gradientUnits="userSpaceOnUse">
<stop stop-color="#192644"/>
<stop offset="1" stop-color="#1A4081"/>
</linearGradient>
<linearGradient id="paint2_linear_133_1158" x1="28.2795" y1="7.41553" x2="30.9531" y2="9.06224" gradientUnits="userSpaceOnUse">
<stop stop-color="#192644"/>
<stop offset="1" stop-color="#1A4081"/>
</linearGradient>
<linearGradient id="paint3_linear_133_1158" x1="13.5584" y1="4.92822" x2="20.148" y2="6.29301" gradientUnits="userSpaceOnUse">
<stop stop-color="#192644"/>
<stop offset="1" stop-color="#1A4081"/>
</linearGradient>
<linearGradient id="paint4_linear_133_1158" x1="13.6501" y1="13.1382" x2="14.482" y2="13.1839" gradientUnits="userSpaceOnUse">
<stop stop-color="#192644"/>
<stop offset="1" stop-color="#1A4081"/>
</linearGradient>
<linearGradient id="paint5_linear_133_1158" x1="13.6189" y1="28.7568" x2="16.2925" y2="30.4035" gradientUnits="userSpaceOnUse">
<stop stop-color="#192644"/>
<stop offset="1" stop-color="#1A4081"/>
</linearGradient>
</defs>
</svg>

<svg xmlns="http://www.w3.org/2000/svg" fill="none" viewBox="0 0 42 42"><path fill="url(#a)" d="M31.47 28.31V14.42a4.94 4.94 0 0 0 2.22-4.67A5.29 5.29 0 0 0 28.94 5a5.56 5.56 0 0 0-4.27 1.35 5.19 5.19 0 0 0-1.73 3.82 4.97 4.97 0 0 0 2.23 4.25V28.3a4.73 4.73 0 0 0-2.23 4.12 5.04 5.04 0 0 0 2.59 4.51c.16.08.34.1.51.04a.65.65 0 0 0 .4-.32c.05-.1.07-.19.07-.3V32.4c0-.5.55-1.09 1.04-1.09h1.57c.49 0 1.04.58 1.04 1.1v3.97c0 .18.08.34.21.46.12.12.29.18.46.18.1 0 .22-.02.32-.08a5.06 5.06 0 0 0 2.57-4.51 4.79 4.79 0 0 0-2.23-4.12l-.02.01Zm-2.35 1.7h-1.57c-1.2 0-2.36 1.19-2.36 2.4v2.58c-.6-.7-.94-1.61-.92-2.56a3.51 3.51 0 0 1 1.9-3.17.67.67 0 0 0 .34-.58V14.04a.67.67 0 0 0-.34-.57 3.66 3.66 0 0 1-1.9-3.31c0-1.1.47-2.13 1.28-2.85a4.14 4.14 0 0 1 3.26-1.02 4 4 0 0 1 3.58 3.55c.16 1.49-.59 2.9-1.89 3.61a.67.67 0 0 0-.34.58v14.63c0 .24.13.46.34.58a3.48 3.48 0 0 1 1.9 3.18c0 .93-.32 1.85-.93 2.56v-2.59c0-1.2-1.16-2.4-2.36-2.4l.01.01Z"/><path fill="url(#b)" d="M28.34 14.12c-.37 0-.66.3-.66.66v13.4c0 .37.3.66.67.66.37 0 .66-.3.66-.66v-13.4c0-.37-.3-.66-.66-.66h-.01Z"/><path fill="url(#c)" d="M31.24 11.25V9.4a.67.67 0 0 0-.2-.48l-1.31-1.3a.68.68 0 0 0-.47-.2H27.4a.62.62 0 0 0-.45.2l-1.32 1.3a.7.7 0 0 0-.2.46v1.85c0 .18.07.35.2.48l1.32 1.31c.11.12.28.2.47.2h1.85c.17 0 .34-.07.46-.2l1.31-1.31a.7.7 0 0 0 .2-.46Zm-3.56.64-.92-.92v-1.3l.92-.92H29l.92.92v1.3l-.92.92h-1.3Z"/><path fill="url(#d)" d="M16.73 5.18c-.43-.28-.73-.2-.86-.11-.25.14-.4.47-.4.89l.06 2.73c0 .6 0 1.18-.36 1.56-.43.49-1.22.47-1.91.4-.42-.03-.8-.07-1.05-.3-.37-.3-.4-.89-.38-1.41L11.85 6c0-.31-.08-.72-.31-.93a.5.5 0 0 0-.45-.15c-.43.04-.9.52-1.34.95l-.04.04c-.79.83-1.3 1.9-1.43 3.03a5.2 5.2 0 0 0 1.88 4.49c.13.1.25.21.31.33.04.1.04.2.04.33v12.88c0 .15-.01.3-.05.4-.08.13-.18.25-.31.35a5.34 5.34 0 0 0 3.36 9.35h.17a5.34 5.34 0 0 0 3.72-9.14c-.22-.18-.39-.4-.5-.61-.07-.2-.1-.4-.09-.6V14.1c0-.1 0-.23.04-.3a.83.83 0 0 1 .32-.32 5.23 5.23 0 0 0 1.9-3.9v-.34a5.24 5.24 0 0 0-2.32-4.03l-.02-.03Zm-.9 7.54a.67.67 0 0 0-.34.58v14.63c0 .24.13.46.34.58a3.66 3.66 0 0 1 1.9 3.3c0 1.1-.47 2.13-1.28 2.85a4.18 4.18 0 0 1-3.25 1.03 4 4 0 0 1-3.58-3.56c-.16-1.48.6-2.9 1.9-3.61a.67.67 0 0 0 .33-.58V13.31a.67.67 0 0 0-.34-.58 3.48 3.48 0 0 1-1.89-3.18c-.01-.93.32-1.85.92-2.55v2.58c0 1.2 1.17 2.4 2.36 2.4h1.58c1.2 0 2.36-1.2 2.36-2.4V7c.6.7.93 1.61.92 2.55a3.51 3.51 0 0 1-1.9 3.18l-.03-.01Z"/><path fill="url(#e)" d="M13.66 27.85c.37 0 .66-.3.66-.65V13.8a.66.66 0 0 0-1.31 0v13.4c0 .36.3.65.65.65Z"/><path fill="url(#f)" d="M14.6 28.76h-1.86a.62.62 0 0 0-.46.2l-1.3 1.3a.68.68 0 0 0-.2.48v1.85c0 .17.06.34.2.46l1.3 1.31c.12.12.3.2.48.2h1.85c.17 0 .34-.07.46-.2l1.31-1.31c.12-.12.2-.29.2-.46v-1.85a.67.67 0 0 0-.2-.47l-1.31-1.32a.68.68 0 0 0-.47-.2ZM13 33.23l-.91-.92v-1.3l.92-.91h1.3l.93.91v1.3l-.92.92H13Z"/><defs><linearGradient id="a" x1="28.22" x2="34.79" y1="4.95" y2="6.32" gradientUnits="userSpaceOnUse"><stop stop-color="#192644"/><stop offset="1" stop-color="#1A4081"/></linearGradient><linearGradient id="b" x1="28.33" x2="29.17" y1="14.12" y2="14.17" gradientUnits="userSpaceOnUse"><stop stop-color="#192644"/><stop offset="1" stop-color="#1A4081"/></linearGradient><linearGradient id="c" x1="28.28" x2="30.95" y1="7.42" y2="9.06" gradientUnits="userSpaceOnUse"><stop stop-color="#192644"/><stop offset="1" stop-color="#1A4081"/></linearGradient><linearGradient id="d" x1="13.56" x2="20.15" y1="4.93" y2="6.29" gradientUnits="userSpaceOnUse"><stop stop-color="#192644"/><stop offset="1" stop-color="#1A4081"/></linearGradient><linearGradient id="e" x1="13.65" x2="14.48" y1="13.14" y2="13.18" gradientUnits="userSpaceOnUse"><stop stop-color="#192644"/><stop offset="1" stop-color="#1A4081"/></linearGradient><linearGradient id="f" x1="13.62" x2="16.29" y1="28.76" y2="30.4" gradientUnits="userSpaceOnUse"><stop stop-color="#192644"/><stop offset="1" stop-color="#1A4081"/></linearGradient></defs></svg>
